X:4
T:Military Set #2 (Land)
M:4/4
L:1/8
Q:1/4=84
K:D
T:Caissons Go Rolling Along
e2
|:{/g}e1c1|{/gef}e2{/g}e1c1 {/gef}e2{/g}e1c1 | {/g}e3/2f/2 {/g}e1c1 {/gef}e2{/g}c1d1 | {/gef}e1d1- d1B1 {/gef}e1d1- d1B1 | {/G}A4{/GAG}A2:|!
e{/A}e|a2{/g}a2 {/ef}e2-e2| {/g}f3/2g/2 a1f1 {/gef}e2-e2 | a1{/g}a1- a1g1 {/a}f2{/gf}g1a1 | {/f}g2{/a}f2{/g}e3{/A}e|!
a2{/g}a2{/ef}e2-e2|{/g}f3/2g/2 a1f1{/gef}e2{/g}c1d1|{/gef}e1d1- d1B1 {/gef}e1d1- d1B1 | {/G}A4{/GAG}A2 |]!
T:Marine Corps Hymn
|:{/g}A1{/d}c1| \
{/gef}e2{/A}e2{/gef}e2{/A}e2 |{/gef}e3a1{/ef}e2c1d1|{/gef}e2{/A}e2{/gde}d1B3 |{/G}A4{/GAG}A2:|!
a1g1 |\
{/fg}f2d2{/g}f2d2|{/gef}e3c1{/gef}e2a1g1|{/fg}f2d2{/g}f1a3 |{/ef}e4{/A}e2 |!
{/g}A1{/d}c1| {/gef}e2{/A}e2{/gef}e2{/A}e2 |{/gef}e3a1{/ef}e2c1d1|{/gef}e2{/A}e2{/gde}d1B3 |{/G}A4{/GAG}A2 |]!

